X:1
T: The Students' March
N:
C: Play  4  times
S:
A:
O:
R:
M:4/4
K:A
I:speed 200
%W: A1
% voice 1 (1 lines, 43 notes)
K:A
M:4/4
L:1/16
A4 |c4 e4 a4 g2 f2 |e2 d2 c2 B2 A4 c2 B2 |c4 A4 c4 d4 |e4 B2 A2 B4 c4 |d6 c2 d4 e4 |c4 d2 c2 d2 c2 B2 A2 |B4 A2 G2 F4 B2 A2 |G4 E4 E4 A4 |
%W:
% voice 1 (1 lines, 39 notes)
c4 e4 a4 g2 f2 |e2 d2 c2 B2 A4 c2 B2 |c4 A4 c4 d4 |e4 B2 A2 B4 c4 |d6 c2 d4 e4 |c4 d2 c2 d2 c2 B2 A2 |G4 A2 B2 B6 A2 |A12 A4 |
%W: A2
% voice 1 (1 lines, 42 notes)
c4 e4 a4 g2 f2 |e2 d2 c2 B2 A4 c2 B2 |c4 A4 c4 d4 |e4 B2 A2 B4 c4 |d6 c2 d4 e4 |c4 d2 c2 d2 c2 B2 A2 |B4 A2 G2 F4 B2 A2 |G4 E4 E4 A4 |
%W:
% voice 1 (1 lines, 39 notes)
c4 e4 a4 g2 f2 |e2 d2 c2 B2 A4 c2 B2 |c4 A4 c4 d4 |e4 B2 A2 B4 c4 |d6 c2 d4 e4 |c4 d2 c2 d2 c2 B2 A2 |G4 A2 B2 B6 A2 |A12 c4 |
%W: B1
% voice 1 (1 lines, 39 notes)
c4 B4 B4 A2 G2 |A4 F8 c4 |d4 B8 e2 d2 |c4 a2 g2 f4 e2 f2 |^d6 e2 e6 d e |f4 B2 c2 B4 A4 |G4 A2 G2 F6 E2 |E4 e2 d2 c4 c2 B2 |
%W:
% voice 1 (1 lines, 35 notes)
A4 a2 g2 f4 d4 |B4 e2 d2 c4 A4 |F4 B2 A2 G4 c4 |A4 d4 B4 e2 d2 |c4 d2 e2 f2 e2 f2 e2 |d2 e2 c2 d2 B6 A2 |A12 c4 |
%W: B2
% voice 1 (1 lines, 39 notes)
c4 B4 B4 A2 G2 |A4 F8 c4 |d4 B8 e2 d2 |c4 a2 g2 f4 e2 f2 |^d6 e2 e6 d e |f4 B2 c2 B4 A4 |G4 A2 G2 F6 E2 |E4 e2 d2 c4 c2 B2 |
%W:
% voice 1 (1 lines, 34 notes)
A4 a2 g2 f4 d4 |B4 e2 d2 c4 A4 |F4 B2 A2 G4 c4 |A4 d4 B4 e2 d2 |c4 d2 e2 f2 e2 f2 e2 |d2 e2 c2 d2 B6 A2 |A12 ||
